!!!OTL@@DE: Herbstlied
!!!COM: Reichardt, J. Fr.
!!!ODT: 1799
!!!OMD: Etwas lebhaft
!!!LYR: von Salis
!!!LDT: 1782
!!!OCL: Erk, Ludwig
!!!GCO: Deutscher Liederschatz, Band 2
**kern	**kern	**kern
*staff3	*staff2	*staff1
*Ipiano	*Ipiano	*Ivox
=1-	=1-	=1-
*clefF4	*clefG2	*clefG2
*k[f#c#g#]	*k[f#c#g#]	*k[f#c#g#]
*A:	*A:	*A:
*M6/8	*M6/8	*M6/8
*MM84	*MM84	*MM84
2.AA/ 2.E/	16a/LL	4a/
.	16e/	.
.	16c#/	.
.	16e/	.
.	16c#/ 16a/	8a/
.	16e/JJ	.
.	16c#/ 16a/LL	(8a/L
.	16e/	.
.	16B/ 16g#/	8g#/J)
.	16e/	.
.	16c#/ 16a/	8a/
.	16e/JJ	.
=2	=2	=2
*^	*	*
4.E\	4.G#\	16b/LL	4.b\
.	.	16e/	.
.	.	16d/	.
.	.	16B/	.
.	.	16d/	.
.	.	16e/JJ	.
8A/	4.AA\ 4.E\	16a/LL	4.a/
.	.	16e/	.
8r	.	16c#/	.
.	.	16A/	.
8r	.	16c#/	.
.	.	16e/JJ	.
*v	*v	*	*
=3	=3	=3
2.AA/ 2.E/	16cc#/LL	4cc#\
.	16a/	.
.	16e/	.
.	16a/	.
.	16cc#/	8cc#\
.	16e/JJ	.
.	16a/ 16cc#/LL	(8cc#\L
.	16e/	.
.	16g#/ 16b/	8b\J)
.	16e/	.
.	16a/ 16cc#/	8cc#\
.	16e/JJ	.
=4	=4	=4
4.GG#/ 4.E/	16dd/LL	4.dd\
.	16b/	.
.	16e/	.
.	16d/	.
.	16e/	.
.	16b/JJ	.
4.AA/ 4.E/	16cc#/LL	4.cc#\
.	16a/	.
.	16e/	.
.	16c#/	.
.	16e/	.
.	16a/JJ	.
=5	=5	=5
4GG#/ 4E/	16b/LL	4b\
.	16e/	.
.	16B/	.
.	16e/	.
8GG#/ 8E/	16b/	8b\
.	16e/JJ	.
4AA/ 4F#/	16a/LL	(8a/L
.	16f#/	.
.	16c#/	8cc#/J)
.	16f#/	.
8BB\ 8A\	16d#/	8d#/
.	16B/JJ	.
=6	=6	=6
*^	*	*
8E\	8G#\	16e/LL	4.e/
.	.	16e/	.
8G#/L	[4E\	16ee/	.
.	.	16e/	.
8F#/ 8A/J	.	16dd#/	.
.	.	16e/JJ	.
8G#/ 8B/L	4.E\]	16ddn/LL	4r
.	.	16e/	.
8A/ 8c#/	.	16cc#/	.
.	.	16e/	.
8B/ 8d/J	.	16b/	8r
.	.	16e/JJ	.
=7	=7	=7	=7
8A/	4AA\ 4E\	16cc#/LL	4cc#\
.	.	16e/	.
8r	.	16c#/	.
.	.	16e/	.
2ryy	8BB\ 8G#\	16b/	8b\
.	.	16e/JJ	.
.	4C#\ 4A\	16a/LL	4a/
.	.	16e/	.
.	.	16c#/	.
.	.	16e/	.
.	8C#\ 8B\	16g#/	8g#/
.	.	16e#/JJ	.
=8	=8	=8	=8
8A/	4.D\	16f#/LL	4.f#/
.	.	16d/	.
8r	.	16A/	.
.	.	16d/	.
8r	.	16f#/	.
.	.	16d/JJ	.
4.ryy	4.C#\ 4.A#\	16f#/LL	4.f#/
.	.	16en/	.
.	.	16c#/	.
.	.	16e/	.
.	.	16f#/	.
.	.	16e/JJ	.
*v	*v	*	*
=9	=9	=9
4BB\ 4F#\ 4B\	16dd/LL	4dd\
.	16f#/	.
.	16d/	.
.	16f#/	.
8C#\ 8A#\	16cc#/	8cc#\
.	16f#/JJ	.
4D\ 4B\	16b/LL	(8b\L
.	16f#/	.
.	16cc#/	8cc#\J)
.	16f#/	.
8D#\ 8B\	16a/	8a/
.	16f#/JJ	.
=10	=10	=10
*^	*	*
[2.E/	4.E\	16g#/LL	4.g#/
.	.	16e/	.
.	.	16B/	.
.	.	16e/	.
.	.	16g#/	.
.	.	16e/JJ	.
.	4.Dn\	16g#/LL	4.g#/
.	.	16e/	.
.	.	16B/	.
.	.	16e/	.
.	.	16g#/	.
.	.	16e/JJ	.
*v	*v	*	*
=11	=11	=11
4C#\ 4E\]	16a/LL	(8a\L
.	16e/	.
.	16a/ 16cc#/	8cc#\J)
.	16e/	.
8C#\ 8A\	16a/ 16ee/	8ee\
.	16e/JJ	.
4E\	16e/LL	(8e/L
.	16d/	.
.	16B/ 16f#/	8f#/J)
.	16d/	.
8EE/ 8E/	16B/ 16g#/	8g#/
.	16d/JJ	.
=12	=12	=12
8AA/	16c#/ 16a/LL	4.a/
.	16e/	.
8r	16A/	.
.	16c#/	.
8r	16E/	.
.	16A/JJ	.
4AAA/ 4AA/	4r	4r
8r	8r	8r
==	==	==
*-	*-	*-
!!!ENC: Craig Stuart Sapp
!!!END: 2004/05/20/
!!!EFL: 218/600
